X:1
T: Jock Cameron
C:
R:Reel
Q: 232
K:A
M:4/4
L:1/8
|:AB|c2 e2 dc BA|c2 e2 fg af|e2 c2 ec AB|c2 B2 B2 AB|
c2 e2 dc BA|c2 e2 fg af|e2 c2 ec AB|c2 A2 A2:|
|:e2|a2 a2 ag fe|d2 d2 fa gf|e2 a2 ec AB|c2 B2 B2 e2|
a2 a2 ag fe|dc de f2 af|e2 a2 ec AB|c2 A2 A2:|
